X:251
%%topmargin 3cm
T:Lord Lovat's Welcome
T:Moirear Sheim
C:Capt. Fraser
O:Scotland
B:Keith Norman MacDonald : "The Skye collection of the best reels & strathspeys extant" : 1887
Z:Ralph Palmer
R:Strathspey
M:C
L:1/8
K:G
d | BGGB AGFE | D<GG>B {Bc}d>B g2 | B<GG>B A>GE<g |
e>dB<d ef g :: degb ab ge | d>eg<a b/a/g/f/ g2 |
[1 d>egdB<d ef g2 :| [2 .g.b .b.g .a.f .g.e | ed Bd ef g2 |]
